images/phone-call.svg

<svg height="512" viewBox="0 0 24 24" width="512" xmlns="http://www.w3.org/2000/svg"><path d="m17.613 12.848 6.265 6.265-3.171 3.171a5.889 5.889 0 0 1 -4.207 1.716c-7.248 0-16.5-9.252-16.5-16.5a5.9 5.9 0 0 1 1.716-4.208l3.171-3.17 6.265 6.265-4.125 4.125a12.136 12.136 0 0 0 6.453 6.468zm4.387-2.848h2a10.011 10.011 0 0 0 -10-10v2a8.009 8.009 0 0 1 8 8zm-4 0h2a6.006 6.006 0 0 0 -6-6v2a4 4 0 0 1 4 4z"/></svg>

<?xml version="1.0" encoding="UTF-8"?>
<svg xmlns="http://www.w3.org/2000/svg" id="Layer_1" data-name="Layer 1" viewBox="0 0 24 24" width="512" height="512"><path d="M17.613,12.848l6.265,6.265-3.171,3.171A5.889,5.889,0,0,1,16.5,24C9.252,24,0,14.748,0,7.5A5.9,5.9,0,0,1,1.716,3.292L4.887.122l6.265,6.265L7.027,10.512A12.136,12.136,0,0,0,13.48,16.98ZM22,10h2A10.011,10.011,0,0,0,14,0V2A8.009,8.009,0,0,1,22,10Zm-4,0h2a6.006,6.006,0,0,0-6-6V6A4,4,0,0,1,18,10Z"/></svg>
